X:265
T: Hill Wife
S: Reavy Collection: "Music of Corktown"
Z: B.Black
M: 6/8
L: 1/8
R: jig
K: G
A|BcB DGB|d2d dcB|c2c cBA|BAG D2c|
BcB DGB|d2d dcB|c2c cBA|G3 G2 :|
K: D
B|:ABA DFA|a2a agf|g2g gfe|fed dcB|
ABA DFA|a2a agf|g2g gfe|1 d3 dcB :|2\
d3-d3||
